images/3234308.svg

<?xml version="1.0" encoding="UTF-8"?>
<svg xmlns="http://www.w3.org/2000/svg" xmlns:xlink="http://www.w3.org/1999/xlink" width="300pt" height="300pt" viewBox="0 0 300 300" version="1.1">
<defs>
<g>
<symbol overflow="visible" id="glyph0-0">
<path style="stroke:none;" d="M 0.453125 1.59375 L 0.453125 -6.34375 L 4.953125 -6.34375 L 4.953125 1.59375 Z M 0.953125 1.09375 L 4.453125 1.09375 L 4.453125 -5.84375 L 0.953125 -5.84375 Z M 0.953125 1.09375 "/>
</symbol>
<symbol overflow="visible" id="glyph0-1">
<path style="stroke:none;" d="M 0.890625 -6.5625 L 2.078125 -6.5625 L 4.984375 -1.078125 L 4.984375 -6.5625 L 5.84375 -6.5625 L 5.84375 0 L 4.65625 0 L 1.75 -5.484375 L 1.75 0 L 0.890625 0 Z M 0.890625 -6.5625 "/>
</symbol>
<symbol overflow="visible" id="glyph0-2">
<path style="stroke:none;" d="M 3.546875 -5.953125 C 2.898438 -5.953125 2.382812 -5.710938 2 -5.234375 C 1.625 -4.753906 1.4375 -4.101562 1.4375 -3.28125 C 1.4375 -2.445312 1.625 -1.789062 2 -1.3125 C 2.382812 -0.832031 2.898438 -0.59375 3.546875 -0.59375 C 4.191406 -0.59375 4.703125 -0.832031 5.078125 -1.3125 C 5.453125 -1.789062 5.640625 -2.445312 5.640625 -3.28125 C 5.640625 -4.101562 5.453125 -4.753906 5.078125 -5.234375 C 4.703125 -5.710938 4.191406 -5.953125 3.546875 -5.953125 Z M 3.546875 -6.6875 C 4.460938 -6.6875 5.195312 -6.375 5.75 -5.75 C 6.300781 -5.132812 6.578125 -4.3125 6.578125 -3.28125 C 6.578125 -2.238281 6.300781 -1.410156 5.75 -0.796875 C 5.195312 -0.179688 4.460938 0.125 3.546875 0.125 C 2.617188 0.125 1.878906 -0.179688 1.328125 -0.796875 C 0.773438 -1.410156 0.5 -2.238281 0.5 -3.28125 C 0.5 -4.3125 0.773438 -5.132812 1.328125 -5.75 C 1.878906 -6.375 2.617188 -6.6875 3.546875 -6.6875 Z M 3.546875 -6.6875 "/>
</symbol>
<symbol overflow="visible" id="glyph0-3">
<path style="stroke:none;" d="M 0.890625 -6.5625 L 1.765625 -6.5625 L 1.765625 -3.875 L 5 -3.875 L 5 -6.5625 L 5.890625 -6.5625 L 5.890625 0 L 5 0 L 5 -3.125 L 1.765625 -3.125 L 1.765625 0 L 0.890625 0 Z M 0.890625 -6.5625 "/>
</symbol>
<symbol overflow="visible" id="glyph0-4">
<path style="stroke:none;" d="M 0.890625 -6.5625 L 4.65625 -6.5625 L 4.65625 -5.8125 L 1.765625 -5.8125 L 1.765625 -3.875 L 4.375 -3.875 L 4.375 -3.140625 L 1.765625 -3.140625 L 1.765625 0 L 0.890625 0 Z M 0.890625 -6.5625 "/>
</symbol>
</g>
</defs>
<g id="surface53181">
<rect x="0" y="0" width="300" height="300" style="fill:rgb(100%,100%,100%);fill-opacity:1;stroke:none;"/>
<path style="fill:none;stroke-width:1.2;stroke-linecap:butt;stroke-linejoin:miter;stroke:rgb(0%,0%,0%);stroke-opacity:1;stroke-miterlimit:10;" d="M 165.53125 190.867188 L 148.1875 185.976562 "/>
<path style="fill:none;stroke-width:1.2;stroke-linecap:butt;stroke-linejoin:miter;stroke:rgb(0%,0%,0%);stroke-opacity:1;stroke-miterlimit:10;" d="M 178.4375 178.292969 L 165.53125 190.867188 "/>
<path style="fill:none;stroke-width:1.2;stroke-linecap:butt;stroke-linejoin:miter;stroke:rgb(0%,0%,0%);stroke-opacity:1;stroke-miterlimit:10;" d="M 148.1875 185.976562 L 143.75 168.511719 "/>
<path style="fill:none;stroke-width:1.2;stroke-linecap:butt;stroke-linejoin:miter;stroke:rgb(0%,0%,0%);stroke-opacity:1;stroke-miterlimit:10;" d="M 143.75 168.511719 L 139.3125 151.046875 "/>
<path style="fill:none;stroke-width:1.2;stroke-linecap:butt;stroke-linejoin:miter;stroke:rgb(0%,0%,0%);stroke-opacity:1;stroke-miterlimit:10;" d="M 143.75 168.511719 L 156.65625 155.9375 "/>
<path style="fill:none;stroke-width:1.2;stroke-linecap:butt;stroke-linejoin:miter;stroke:rgb(0%,0%,0%);stroke-opacity:1;stroke-miterlimit:10;" d="M 130.84375 181.085938 L 143.75 168.511719 "/>
<path style="fill:none;stroke-width:1.2;stroke-linecap:butt;stroke-linejoin:miter;stroke:rgb(0%,0%,0%);stroke-opacity:1;stroke-miterlimit:10;" d="M 139.3125 151.046875 L 121.96875 146.15625 "/>
<path style="fill:none;stroke-width:1.2;stroke-linecap:butt;stroke-linejoin:miter;stroke:rgb(0%,0%,0%);stroke-opacity:1;stroke-miterlimit:10;" d="M 121.96875 146.15625 L 115.515625 152.445312 "/>
<path style="fill:none;stroke-width:1.2;stroke-linecap:butt;stroke-linejoin:miter;stroke:rgb(0%,0%,100%);stroke-opacity:1;stroke-miterlimit:10;" d="M 115.515625 152.445312 L 109.0625 158.734375 "/>
<path style="fill:none;stroke-width:1.2;stroke-linecap:butt;stroke-linejoin:miter;stroke:rgb(0%,0%,100%);stroke-opacity:1;stroke-miterlimit:10;" d="M 109.0625 158.734375 L 111.28125 167.464844 "/>
<path style="fill:none;stroke-width:1.2;stroke-linecap:butt;stroke-linejoin:miter;stroke:rgb(0%,0%,0%);stroke-opacity:1;stroke-miterlimit:10;" d="M 111.28125 167.464844 L 113.5 176.199219 "/>
<path style="fill:none;stroke-width:1.2;stroke-linecap:butt;stroke-linejoin:miter;stroke:rgb(0%,0%,100%);stroke-opacity:1;stroke-miterlimit:10;" d="M 109.0625 158.734375 L 100.390625 156.289062 "/>
<path style="fill:none;stroke-width:1.2;stroke-linecap:butt;stroke-linejoin:miter;stroke:rgb(0%,0%,0%);stroke-opacity:1;stroke-miterlimit:10;" d="M 100.390625 156.289062 L 91.71875 153.84375 "/>
<path style=" stroke:none;fill-rule:nonzero;fill:rgb(100%,100%,100%);fill-opacity:1;" d="M 106.0625 153.234375 L 113.0625 153.234375 L 113.0625 164.234375 L 106.0625 164.234375 Z M 106.0625 153.234375 "/>
<g style="fill:rgb(0%,0%,100%);fill-opacity:1;">
  <use xlink:href="#glyph0-1" x="106.0625" y="161.897461"/>
</g>
<path style="fill:none;stroke-width:1.2;stroke-linecap:butt;stroke-linejoin:miter;stroke:rgb(0%,0%,0%);stroke-opacity:1;stroke-miterlimit:10;" d="M 113.5 176.199219 L 130.84375 181.085938 "/>
<path style="fill:none;stroke-width:1.2;stroke-linecap:butt;stroke-linejoin:miter;stroke:rgb(0%,0%,0%);stroke-opacity:1;stroke-miterlimit:10;" d="M 90.238281 152.324219 L 83.785156 158.613281 "/>
<path style="fill:none;stroke-width:1.2;stroke-linecap:butt;stroke-linejoin:miter;stroke:rgb(100%,0%,0%);stroke-opacity:1;stroke-miterlimit:10;" d="M 83.785156 158.613281 L 77.332031 164.898438 "/>
<path style="fill:none;stroke-width:1.2;stroke-linecap:butt;stroke-linejoin:miter;stroke:rgb(0%,0%,0%);stroke-opacity:1;stroke-miterlimit:10;" d="M 93.199219 155.359375 L 86.746094 161.648438 "/>
<path style="fill:none;stroke-width:1.2;stroke-linecap:butt;stroke-linejoin:miter;stroke:rgb(100%,0%,0%);stroke-opacity:1;stroke-miterlimit:10;" d="M 86.746094 161.648438 L 80.292969 167.9375 "/>
<path style="fill:none;stroke-width:1.2;stroke-linecap:butt;stroke-linejoin:miter;stroke:rgb(0%,0%,0%);stroke-opacity:1;stroke-miterlimit:10;" d="M 91.71875 153.84375 L 89.5 145.109375 "/>
<path style="fill:none;stroke-width:1.2;stroke-linecap:butt;stroke-linejoin:miter;stroke:rgb(100%,0%,0%);stroke-opacity:1;stroke-miterlimit:10;" d="M 89.5 145.109375 L 87.28125 136.378906 "/>
<path style=" stroke:none;fill-rule:nonzero;fill:rgb(100%,100%,100%);fill-opacity:1;" d="M 70.8125 160.917969 L 78.8125 160.917969 L 78.8125 171.917969 L 70.8125 171.917969 Z M 70.8125 160.917969 "/>
<g style="fill:rgb(100%,0%,0%);fill-opacity:1;">
  <use xlink:href="#glyph0-2" x="70.8125" y="169.581055"/>
</g>
<path style="fill:none;stroke-width:1.2;stroke-linecap:butt;stroke-linejoin:miter;stroke:rgb(100%,0%,0%);stroke-opacity:1;stroke-miterlimit:10;" d="M 87.28125 136.378906 L 78.609375 133.933594 "/>
<path style="fill:none;stroke-width:1.2;stroke-linecap:butt;stroke-linejoin:miter;stroke:rgb(0%,0%,0%);stroke-opacity:1;stroke-miterlimit:10;" d="M 78.609375 133.933594 L 69.9375 131.488281 "/>
<path style=" stroke:none;fill-rule:nonzero;fill:rgb(100%,100%,100%);fill-opacity:1;" d="M 83.28125 130.878906 L 91.28125 130.878906 L 91.28125 141.878906 L 83.28125 141.878906 Z M 83.28125 130.878906 "/>
<g style="fill:rgb(100%,0%,0%);fill-opacity:1;">
  <use xlink:href="#glyph0-2" x="83.28125" y="139.541992"/>
</g>
<path style="fill:none;stroke-width:1.2;stroke-linecap:butt;stroke-linejoin:miter;stroke:rgb(0%,0%,0%);stroke-opacity:1;stroke-miterlimit:10;" d="M 69.9375 131.488281 L 65.5 114.023438 "/>
<path style="fill:none;stroke-width:1.2;stroke-linecap:butt;stroke-linejoin:miter;stroke:rgb(0%,0%,0%);stroke-opacity:1;stroke-miterlimit:10;" d="M 65.382812 130.785156 L 61.835938 116.8125 "/>
<path style="fill:none;stroke-width:1.2;stroke-linecap:butt;stroke-linejoin:miter;stroke:rgb(0%,0%,0%);stroke-opacity:1;stroke-miterlimit:10;" d="M 57.03125 144.0625 L 69.9375 131.488281 "/>
<path style="fill:none;stroke-width:1.2;stroke-linecap:butt;stroke-linejoin:miter;stroke:rgb(0%,0%,0%);stroke-opacity:1;stroke-miterlimit:10;" d="M 65.5 114.023438 L 48.15625 109.132812 "/>
<path style="fill:none;stroke-width:1.2;stroke-linecap:butt;stroke-linejoin:miter;stroke:rgb(0%,0%,0%);stroke-opacity:1;stroke-miterlimit:10;" d="M 48.15625 109.132812 L 35.25 121.707031 "/>
<path style="fill:none;stroke-width:1.2;stroke-linecap:butt;stroke-linejoin:miter;stroke:rgb(0%,0%,0%);stroke-opacity:1;stroke-miterlimit:10;" d="M 49.824219 113.425781 L 39.5 123.488281 "/>
<path style="fill:none;stroke-width:1.2;stroke-linecap:butt;stroke-linejoin:miter;stroke:rgb(0%,0%,0%);stroke-opacity:1;stroke-miterlimit:10;" d="M 35.25 121.707031 L 39.6875 139.171875 "/>
<path style="fill:none;stroke-width:1.2;stroke-linecap:butt;stroke-linejoin:miter;stroke:rgb(0%,0%,0%);stroke-opacity:1;stroke-miterlimit:10;" d="M 39.6875 139.171875 L 57.03125 144.0625 "/>
<path style="fill:none;stroke-width:1.2;stroke-linecap:butt;stroke-linejoin:miter;stroke:rgb(0%,0%,0%);stroke-opacity:1;stroke-miterlimit:10;" d="M 42.570312 135.582031 L 56.445312 139.492188 "/>
<path style="fill:none;stroke-width:1.2;stroke-linecap:butt;stroke-linejoin:miter;stroke:rgb(0%,0%,0%);stroke-opacity:1;stroke-miterlimit:10;" d="M 156.65625 155.9375 L 165.328125 158.382812 "/>
<path style="fill:none;stroke-width:1.2;stroke-linecap:butt;stroke-linejoin:miter;stroke:rgb(0%,0%,100%);stroke-opacity:1;stroke-miterlimit:10;" d="M 165.328125 158.382812 L 174 160.828125 "/>
<path style="fill:none;stroke-width:1.2;stroke-linecap:butt;stroke-linejoin:miter;stroke:rgb(0%,0%,100%);stroke-opacity:1;stroke-miterlimit:10;" d="M 174 160.828125 L 176.21875 169.558594 "/>
<path style="fill:none;stroke-width:1.2;stroke-linecap:butt;stroke-linejoin:miter;stroke:rgb(0%,0%,0%);stroke-opacity:1;stroke-miterlimit:10;" d="M 176.21875 169.558594 L 178.4375 178.292969 "/>
<path style="fill:none;stroke-width:1.2;stroke-linecap:butt;stroke-linejoin:miter;stroke:rgb(0%,0%,100%);stroke-opacity:1;stroke-miterlimit:10;" d="M 174 160.828125 L 180.453125 154.539062 "/>
<path style="fill:none;stroke-width:1.2;stroke-linecap:butt;stroke-linejoin:miter;stroke:rgb(0%,0%,0%);stroke-opacity:1;stroke-miterlimit:10;" d="M 180.453125 154.539062 L 186.90625 148.25 "/>
<path style=" stroke:none;fill-rule:nonzero;fill:rgb(100%,100%,100%);fill-opacity:1;" d="M 171 155.328125 L 178 155.328125 L 178 166.328125 L 171 166.328125 Z M 171 155.328125 "/>
<g style="fill:rgb(0%,0%,100%);fill-opacity:1;">
  <use xlink:href="#glyph0-1" x="171" y="163.991211"/>
</g>
<path style="fill:none;stroke-width:1.2;stroke-linecap:butt;stroke-linejoin:miter;stroke:rgb(0%,0%,0%);stroke-opacity:1;stroke-miterlimit:10;" d="M 188.960938 147.730469 L 186.742188 138.996094 "/>
<path style="fill:none;stroke-width:1.2;stroke-linecap:butt;stroke-linejoin:miter;stroke:rgb(100%,0%,0%);stroke-opacity:1;stroke-miterlimit:10;" d="M 186.742188 138.996094 L 184.523438 130.265625 "/>
<path style="fill:none;stroke-width:1.2;stroke-linecap:butt;stroke-linejoin:miter;stroke:rgb(0%,0%,0%);stroke-opacity:1;stroke-miterlimit:10;" d="M 184.851562 148.773438 L 182.632812 140.039062 "/>
<path style="fill:none;stroke-width:1.2;stroke-linecap:butt;stroke-linejoin:miter;stroke:rgb(100%,0%,0%);stroke-opacity:1;stroke-miterlimit:10;" d="M 182.632812 140.039062 L 180.414062 131.308594 "/>
<path style="fill:none;stroke-width:1.2;stroke-linecap:butt;stroke-linejoin:miter;stroke:rgb(0%,0%,0%);stroke-opacity:1;stroke-miterlimit:10;" d="M 186.90625 148.25 L 195.578125 150.695312 "/>
<path style="fill:none;stroke-width:1.2;stroke-linecap:butt;stroke-linejoin:miter;stroke:rgb(0%,0%,100%);stroke-opacity:1;stroke-miterlimit:10;" d="M 195.578125 150.695312 L 204.25 153.140625 "/>
<path style=" stroke:none;fill-rule:nonzero;fill:rgb(100%,100%,100%);fill-opacity:1;" d="M 178.46875 125.285156 L 186.46875 125.285156 L 186.46875 136.285156 L 178.46875 136.285156 Z M 178.46875 125.285156 "/>
<g style="fill:rgb(100%,0%,0%);fill-opacity:1;">
  <use xlink:href="#glyph0-2" x="178.46875" y="133.948242"/>
</g>
<path style="fill:none;stroke-width:1.2;stroke-linecap:butt;stroke-linejoin:miter;stroke:rgb(0%,0%,100%);stroke-opacity:1;stroke-miterlimit:10;" d="M 204.25 153.140625 L 210.703125 146.855469 "/>
<path style="fill:none;stroke-width:1.2;stroke-linecap:butt;stroke-linejoin:miter;stroke:rgb(0%,0%,0%);stroke-opacity:1;stroke-miterlimit:10;" d="M 210.703125 146.855469 L 217.15625 140.566406 "/>
<path style=" stroke:none;fill-rule:nonzero;fill:rgb(100%,100%,100%);fill-opacity:1;" d="M 197.25 147.640625 L 211.25 147.640625 L 211.25 158.640625 L 197.25 158.640625 Z M 197.25 147.640625 "/>
<g style="fill:rgb(0%,0%,100%);fill-opacity:1;">
  <use xlink:href="#glyph0-1" x="197.25" y="156.303711"/>
  <use xlink:href="#glyph0-3" x="204.227539" y="156.303711"/>
</g>
<path style="fill:none;stroke-width:1.2;stroke-linecap:butt;stroke-linejoin:miter;stroke:rgb(0%,0%,0%);stroke-opacity:1;stroke-miterlimit:10;" d="M 217.15625 140.566406 L 234.5 145.457031 "/>
<path style="fill:none;stroke-width:1.2;stroke-linecap:butt;stroke-linejoin:miter;stroke:rgb(0%,0%,0%);stroke-opacity:1;stroke-miterlimit:10;" d="M 220.042969 136.972656 L 233.914062 140.886719 "/>
<path style="fill:none;stroke-width:1.2;stroke-linecap:butt;stroke-linejoin:miter;stroke:rgb(0%,0%,0%);stroke-opacity:1;stroke-miterlimit:10;" d="M 212.71875 123.101562 L 217.15625 140.566406 "/>
<path style="fill:none;stroke-width:1.2;stroke-linecap:butt;stroke-linejoin:miter;stroke:rgb(0%,0%,0%);stroke-opacity:1;stroke-miterlimit:10;" d="M 234.5 145.457031 L 247.40625 132.878906 "/>
<path style="fill:none;stroke-width:1.2;stroke-linecap:butt;stroke-linejoin:miter;stroke:rgb(0%,0%,0%);stroke-opacity:1;stroke-miterlimit:10;" d="M 247.40625 132.878906 L 242.96875 115.414062 "/>
<path style="fill:none;stroke-width:1.2;stroke-linecap:butt;stroke-linejoin:miter;stroke:rgb(0%,0%,0%);stroke-opacity:1;stroke-miterlimit:10;" d="M 242.851562 132.179688 L 239.304688 118.207031 "/>
<path style="fill:none;stroke-width:1.2;stroke-linecap:butt;stroke-linejoin:miter;stroke:rgb(0%,0%,0%);stroke-opacity:1;stroke-miterlimit:10;" d="M 247.40625 132.878906 L 256.078125 135.324219 "/>
<path style="fill:none;stroke-width:1.2;stroke-linecap:butt;stroke-linejoin:miter;stroke:rgb(20%,80%,80%);stroke-opacity:1;stroke-miterlimit:10;" d="M 256.078125 135.324219 L 264.75 137.769531 "/>
<path style="fill:none;stroke-width:1.2;stroke-linecap:butt;stroke-linejoin:miter;stroke:rgb(0%,0%,0%);stroke-opacity:1;stroke-miterlimit:10;" d="M 242.96875 115.414062 L 225.625 110.527344 "/>
<path style="fill:none;stroke-width:1.2;stroke-linecap:butt;stroke-linejoin:miter;stroke:rgb(0%,0%,0%);stroke-opacity:1;stroke-miterlimit:10;" d="M 225.625 110.527344 L 212.71875 123.101562 "/>
<path style="fill:none;stroke-width:1.2;stroke-linecap:butt;stroke-linejoin:miter;stroke:rgb(0%,0%,0%);stroke-opacity:1;stroke-miterlimit:10;" d="M 227.292969 114.820312 L 216.96875 124.878906 "/>
<path style=" stroke:none;fill-rule:nonzero;fill:rgb(100%,100%,100%);fill-opacity:1;" d="M 261.75 132.269531 L 267.75 132.269531 L 267.75 143.269531 L 261.75 143.269531 Z M 261.75 132.269531 "/>
<g style="fill:rgb(20%,80%,80%);fill-opacity:1;">
  <use xlink:href="#glyph0-4" x="261.75" y="140.932617"/>
</g>
</g>
</svg>

<svg xmlns="http://www.w3.org/2000/svg" xmlns:xlink="http://www.w3.org/1999/xlink" width="300pt" height="300pt" viewBox="0 0 300 300"><defs><symbol overflow="visible"><path d="M.453 1.594v-7.938h4.5v7.938zm.5-.5h3.5v-6.938h-3.5zm0 0"/></symbol><symbol overflow="visible" id="a"><path d="M.89-6.563H2.08l2.906 5.485v-5.484h.86V0H4.656L1.75-5.484V0H.89zm0 0"/></symbol><symbol overflow="visible" id="b"><path d="M3.547-5.953c-.65 0-1.164.242-1.547.72-.375.48-.563 1.13-.563 1.952 0 .835.188 1.49.563 1.967.383.48.898.72 1.547.72.644 0 1.156-.24 1.53-.72.376-.476.564-1.132.564-1.968 0-.822-.187-1.474-.562-1.954-.375-.477-.887-.72-1.53-.72zm0-.734c.914 0 1.648.312 2.203.937.55.617.828 1.438.828 2.47 0 1.042-.277 1.87-.828 2.483-.555.617-1.29.922-2.203.922-.93 0-1.668-.305-2.22-.922C.774-1.41.5-2.237.5-3.28c0-1.033.273-1.853.828-2.47.55-.625 1.29-.938 2.22-.938zm0 0"/></symbol><symbol overflow="visible" id="c"><path d="M.89-6.563h.876v2.688H5v-2.688h.89V0H5v-3.125H1.766V0H.89zm0 0"/></symbol><symbol overflow="visible" id="d"><path d="M.89-6.563h3.766v.75h-2.89v1.938h2.61v.734h-2.61V0H.89zm0 0"/></symbol></defs><g><path fill="#fff" d="M0 0h300v300H0z"/><path d="M165.53 190.867l-17.343-4.89M178.438 178.293l-12.907 12.574M148.188 185.977l-4.438-17.465M143.75 168.512l-4.438-17.465M143.75 168.512l12.906-12.575M130.844 181.086l12.906-12.574M139.313 151.047l-17.344-4.89M121.97 146.156l-6.454 6.29" stroke-width="1.2" stroke="#000" stroke-miterlimit="10" fill="none"/><path d="M115.516 152.445l-6.454 6.29M109.063 158.734l2.218 8.73" stroke-width="1.2" stroke="#00f" stroke-miterlimit="10" fill="none"/><path d="M111.28 167.465l2.22 8.734" stroke-width="1.2" stroke="#000" stroke-miterlimit="10" fill="none"/><path d="M109.063 158.734l-8.672-2.445" stroke-width="1.2" stroke="#00f" stroke-miterlimit="10" fill="none"/><path d="M100.39 156.29l-8.67-2.446" stroke-width="1.2" stroke="#000" stroke-miterlimit="10" fill="none"/><path d="M106.063 153.234h7v11h-7zm0 0" fill="#fff"/><use xlink:href="#a" x="106.063" y="161.897" fill="#00f"/><path d="M113.5 176.2l17.344 4.886M90.238 152.324l-6.453 6.29" stroke-width="1.2" stroke="#000" stroke-miterlimit="10" fill="none"/><path d="M83.785 158.613l-6.453 6.285" stroke-width="1.2" stroke="#f00" stroke-miterlimit="10" fill="none"/><path d="M93.2 155.36l-6.454 6.288" stroke-width="1.2" stroke="#000" stroke-miterlimit="10" fill="none"/><path d="M86.746 161.648l-6.453 6.29" stroke-width="1.2" stroke="#f00" stroke-miterlimit="10" fill="none"/><path d="M91.72 153.844l-2.22-8.735" stroke-width="1.2" stroke="#000" stroke-miterlimit="10" fill="none"/><path d="M89.5 145.11l-2.22-8.73" stroke-width="1.2" stroke="#f00" stroke-miterlimit="10" fill="none"/><path d="M70.813 160.918h8v11h-8zm0 0" fill="#fff"/><use xlink:href="#b" x="70.813" y="169.581" fill="#f00"/><path d="M87.28 136.38l-8.67-2.446" stroke-width="1.2" stroke="#f00" stroke-miterlimit="10" fill="none"/><path d="M78.61 133.934l-8.672-2.446" stroke-width="1.2" stroke="#000" stroke-miterlimit="10" fill="none"/><path d="M83.28 130.88h8v11h-8zm0 0" fill="#fff"/><use xlink:href="#b" x="83.281" y="139.542" fill="#f00"/><path d="M69.938 131.488L65.5 114.023M65.383 130.785l-3.547-13.972M57.03 144.063l12.907-12.575M65.5 114.023l-17.344-4.89M48.156 109.133L35.25 121.707M49.824 113.426L39.5 123.488M35.25 121.707l4.438 17.465M39.688 139.172l17.343 4.89M42.57 135.582l13.875 3.91M156.656 155.938l8.672 2.445" stroke-width="1.2" stroke="#000" stroke-miterlimit="10" fill="none"/><path d="M165.328 158.383l8.672 2.445M174 160.828l2.22 8.73" stroke-width="1.2" stroke="#00f" stroke-miterlimit="10" fill="none"/><path d="M176.22 169.56l2.218 8.733" stroke-width="1.2" stroke="#000" stroke-miterlimit="10" fill="none"/><path d="M174 160.828l6.453-6.29" stroke-width="1.2" stroke="#00f" stroke-miterlimit="10" fill="none"/><path d="M180.453 154.54l6.453-6.29" stroke-width="1.2" stroke="#000" stroke-miterlimit="10" fill="none"/><path d="M171 155.328h7v11h-7zm0 0" fill="#fff"/><use xlink:href="#a" x="171" y="163.991" fill="#00f"/><path d="M188.96 147.73l-2.218-8.734" stroke-width="1.2" stroke="#000" stroke-miterlimit="10" fill="none"/><path d="M186.742 138.996l-2.22-8.73" stroke-width="1.2" stroke="#f00" stroke-miterlimit="10" fill="none"/><path d="M184.852 148.773l-2.22-8.734" stroke-width="1.2" stroke="#000" stroke-miterlimit="10" fill="none"/><path d="M182.633 140.04l-2.22-8.73" stroke-width="1.2" stroke="#f00" stroke-miterlimit="10" fill="none"/><path d="M186.906 148.25l8.672 2.445" stroke-width="1.2" stroke="#000" stroke-miterlimit="10" fill="none"/><path d="M195.578 150.695l8.672 2.446" stroke-width="1.2" stroke="#00f" stroke-miterlimit="10" fill="none"/><path d="M178.47 125.285h8v11h-8zm0 0" fill="#fff"/><use xlink:href="#b" x="178.469" y="133.948" fill="#f00"/><path d="M204.25 153.14l6.453-6.285" stroke-width="1.2" stroke="#00f" stroke-miterlimit="10" fill="none"/><path d="M210.703 146.855l6.453-6.29" stroke-width="1.2" stroke="#000" stroke-miterlimit="10" fill="none"/><path d="M197.25 147.64h14v11h-14zm0 0" fill="#fff"/><g fill="#00f"><use xlink:href="#a" x="197.25" y="156.304"/><use xlink:href="#c" x="204.228" y="156.304"/></g><path d="M217.156 140.566l17.344 4.89M220.043 136.973l13.87 3.914M212.72 123.102l4.436 17.464M234.5 145.457l12.906-12.578M247.406 132.88l-4.437-17.466M242.852 132.18l-3.547-13.973M247.406 132.88l8.672 2.444" stroke-width="1.2" stroke="#000" stroke-miterlimit="10" fill="none"/><path d="M256.078 135.324l8.672 2.446" stroke-width="1.2" stroke="#3cc" stroke-miterlimit="10" fill="none"/><path d="M242.97 115.414l-17.345-4.887M225.625 110.527l-12.906 12.575M227.293 114.82l-10.324 10.06" stroke-width="1.2" stroke="#000" stroke-miterlimit="10" fill="none"/><path d="M261.75 132.27h6v11h-6zm0 0" fill="#fff"/><use xlink:href="#d" x="261.75" y="140.933" fill="#3cc"/></g></svg>
